X:069
U: ~ = !turn!
%%topmargin 3cm
T:Fasten the Leg in Her
B:Traditional Irish Fiddle Tunes. Randy Miller and Jack Perron.
Z:Transcribed by Ralph Palmer
R:Jig
L:1/8
M:6/8
K:D
BdB {/c}BAB | GBd gdB | [A3A3] A^GA | ~B3 {/e}dBA |
~B3 {/c}BAB | GBd gfg | efg eag | [1 fdd d2 z :|] [2 fdd d2 |]
|: e/2f/2 | ~g3 ~f3 | efe dBA | ~G3 A^GA | B>ee def |
gAA fAA | efe d^cd | efg eag |[1 fdd d2 :|] [2 fdd d3 |]
